X:1
T:Title
L:1/8
Q:1/4=100
M:4/4
K:F
V:1 treble nm="Grand Piano"
V:1
 A A2 G/F/ C C2 D/E/ | F>F GA D4 | B B2 A/G/ D D2 F | E>E FG A4 | A A2 G/F/ C C2 D/E/ | F>F GA B4 | %6
w: ??????~????~??? * * * * * * *||||||
 B B2 A/G/ A A2 A | GDEF G2 AB | c c2 =B/c/ ^c c2 c | d>A Ac B4 | B B2 A/G/ A A2 A | GDEF G4 | %12
w: ||||||
 A A2 G/F/ C C2 D/E/ | F>F GA B4 | B B2 A/G/ c>A F>G | AA G/F/G F4 |] %16
w: ||||

